X: 79
T: The joy of my life
C: anon.
O: Ireland
B: Francis O'Neill: "The Dance Music of Ireland" (1907) no. 79
R: Double jig
Z: Transcribed by Frank Nordberg - http://www.musicaviva.com
F: http://www.musicaviva.com/abc/tunes/ireland/oneill-1001/oneill-1001-007
9.abc
M: 6/8
L: 1/8
K: G
D|GFG AGA|Bge dBA|BAB GAB|AGE GED|GFGAGA|Bge dBA|BAB GAB|AGF G2::f|gfe fe
d|
efg dBG|Bee dBA|Bee e2f|[1 gfe fed|efg dBA|BAB GAB|AGF G2:|[2 gbg faf|ege
 dBA|BAB GAB|AGF G2|]
W:
W:
W: From Musica Viva - http://www.musicaviva.com
W: the Internet center for free sheet music downloads.


